X:12
T:Fermoy Lasses, The
R:reel
Z:id:hn-reel-12
M:C|
K:G
GE~E2 BE~E2|GFGA B2BA|GE~E2 BE~E2|AFDF AcBA|
GE~E2 BE~E2|GFGA B2BA|~G3F GBdB|AFDF AcBA:|
|:G2BG dGBG|~G2Bd efg2|G2BG dGBG|AFDF AcBA|
G2BG dGBG|~G2Bd efg2|(3agf ge dedB|AFDF AcBA:|
<end>
<start>
